X: 671
P: Longways for as many as will
M: C|
L: 1/8
K: Gm
e2 |\
f2g2 a2ga | ^f2 d4 A2 | B2(AG) A2(GF) | G6 |]
de |\
f2c2 e2d2 | f2 B4 e2 | f2d2 gfga | f2 b4 a2 |\
f2d2 edcB | A2 f4 A2 | B2AG A2G^F | D2 G6 |]

